X:1
T:James Gibb editions
T:Il fortunato - Gastoldi
%%score [ 1 2 3 ]
L:1/8
Q:1/4=100
M:2/2
K:D
V:1 treble nm="Soprano" snm="S"
V:2 treble nm="Alto" snm="A"
V:3 bass nm="Bass" snm="B"
V:1
"^Il fortunato""^Giovanni Gastoldi\n(1560-1609)" z2 AA | A2 A2 B2 B2 | A4 z2 Bc | d2 c2 B2 B2 |1 %4
w: Vò lo-|dar mai sem- pre~~a-|mor Che di|gio- ia m'em- pie~~il|
w: Vò mai|sem- pre~~al- le- gro|star E por|me- ta~~al sos- pi-|
 c4 :|2[M:3/2][Q:1/4=200] c12 ||[M:3/2][Q:1/4=200][Q:1/4=200][Q:1/4=200] A4 B4 c4 | d8 A4 | %8
w: cor.|cor.|Tut- te le|pe- ne,|
w: rar.|rar.|Tut- ti~~i miei|gior- ni,|
 d4 d4 c4 | d4- d4 d4 | e2- e2 d4 B4 | c8 c4 | d8 B4 ||[M:2/2] x8 |[M:2/2][Q:1/4=100] c4 |: %15
w: Fiam- me~~e ca-|te- ne, Dar-|di\- * e sos-|pir vò|be- ne-||dir,|
w: Di gio- ia~~a-|dor\- * ni|Go- de- rà~~il mio|cor Mer-|ce d'à-||mor;|
 z2 AA B2 A2 | B2 c2 d4 | z2 AA G2 F2 | E2 E2 F4 :| %19
w: Poi chè~~al- fin m'ha|col- mo~~il sen|D'o- gni gio- ia~~e|d'o- gni ben.|
w: O che gau- dio~~o|che pia- cer|Per te go- do~~o|cie- co~~Ar- cier.|
V:2
 z2 FF | F2 F2 G2 G2 | F4 z2 GA | B2 A2 A2 ^G2 |1 A4 :|2[M:3/2] A12 ||[M:3/2] E4 E4 E4 | F8 F4 | %8
w: Vò lo-|dar mai sem- pre~~a-|mor Che di|gio- ia m'em- pie~~il|cor.|cor.|Tut- te le|pe- ne,|
w: Vò mai|sem- pre~~al- le- gro|star E por|me- ta~~al sos- pi-|rar.|rar.|Tut- ti~~i miei|gior- ni,|
 A4 G4 E4 | F4- F4 F4 | A2- A2 A4 ^G4 | A8 E4 | F8 ^G4 ||[M:2/2] x8 |[M:2/2] A4 |: z2 FF E2 F2 | %16
w: Fiam- me~~e ca-|te- ne, Dar-|di\- * e sos-|pir vò|be- ne-||dir,|Poi chè~~al- fin m'ha|
w: Di gio- ia~~a-|dor\- * ni|Go- de- rà~~il mio|cor Mer-|ce d'à-||mor;|O che gau- dio~~o|
 G2 E2 F4 | z2 FF E2 D2 | D2 C2 D4 :| %19
w: col- mo~~il sen|D'o- gni gio- ia~~e|d'o- gni ben.|
w: che pia- cer|Per te go- do~~o|cie- co~~Ar- cier.|
V:3
 z2 D,D, | D,2 D,2 G,,2 G,,2 | D,4 z2 G,G, | G,2 A,2 E,2 E,2 |1 A,,4 :|2[M:3/2] A,,12 || %6
w: Vò lo-|dar mai sem- pre~~a-|mor Che di|gio- ia m'em- pie~~il|cor.|cor.|
w: Vò mai|sem- pre~~al- le- gro|star E por|me- ta~~al sos- pi-|rar.|rar.|
[M:3/2] A,4 ^G,4 A,4 | D,8 D,4 | F,4 G,4 A,4 | D,4- D,4 D,4 | C,2- C,2 D,4 E,4 | A,,8 A,,4 | %12
w: Tut- te le|pe- ne,|Fiam- me~~e ca-|te- ne, Dar-|di\- * e sos-|pir vò|
w: Tut- ti~~i miei|gior- ni,|Di gio- ia~~a-|dor\- * ni|Go- de- rà~~il mio|cor Mer-|
 D,8 E,4 ||[M:2/2] x8 |[M:2/2] A,,4 |: z2 D,D, G,2 F,2 | E,2 A,2 D,4 | z2 D,D, G,,2 G,,2 | %18
w: be- ne-||dir,|Poi chè~~al- fin m'ha|col- mo~~il sen|D'o- gni gio- ia~~e|
w: ce d'à-||mor;|O che gau- dio~~o|che pia- cer|Per te go- do~~o|
 A,,2 A,,2 D,4 :| %19
w: d'o- gni ben.|
w: cie- co~~Ar- cier.|

